sources/design/Outline/M.svg

<svg:svg xmlns:cc="http://creativecommons.org/ns#" xmlns:dc="http://purl.org/dc/elements/1.1/" xmlns:inkscape="http://www.inkscape.org/namespaces/inkscape" xmlns:rdf="http://www.w3.org/1999/02/22-rdf-syntax-ns#" xmlns:sodipodi="http://sodipodi.sourceforge.net/DTD/sodipodi-0.dtd" xmlns:svg="http://www.w3.org/2000/svg" xml:space="preserve" width="1000" height="1000" version="1.1" style="clip-rule:evenodd;fill-rule:evenodd;image-rendering:optimizeQuality;shape-rendering:geometricPrecision;text-rendering:geometricPrecision" viewBox="0 0 1000 1000" id="svg10" sodipodi:docname="M.svg" inkscape:version="1.0.2 (e86c870879, 2021-01-15)"><svg:metadata id="metadata14"><rdf:RDF><cc:Work rdf:about=""><dc:format>image/svg+xml</dc:format><dc:type rdf:resource="http://purl.org/dc/dcmitype/StillImage" /><dc:title /></cc:Work></rdf:RDF></svg:metadata><sodipodi:namedview pagecolor="#ffffff" bordercolor="#666666" borderopacity="1" objecttolerance="10" gridtolerance="10" guidetolerance="10" inkscape:pageopacity="0" inkscape:pageshadow="2" inkscape:window-width="1920" inkscape:window-height="1007" id="namedview12" showgrid="false" inkscape:zoom="0.84890884" inkscape:cx="508.28087" inkscape:cy="423.0944" inkscape:window-x="1920" inkscape:window-y="0" inkscape:window-maximized="1" inkscape:current-layer="svg10" showguides="true" inkscape:guide-bbox="true" inkscape:document-rotation="0" inkscape:pagecheckerboard="0"><sodipodi:guide position="0,1000" orientation="0,1" id="guide16" inkscape:label="" inkscape:locked="true" inkscape:color="rgb(0,0,255)" /><sodipodi:guide position="1763.3122,2036.1693" orientation="1000,0" id="guide18" /><sodipodi:guide position="0,200" orientation="0,1" id="guide20" inkscape:label="base" inkscape:locked="true" inkscape:color="rgb(0,0,255)" /><inkscape:grid type="xygrid" id="grid24" originx="-473.37552" originy="-489.69235" /><sodipodi:guide position="0,0" orientation="0,1" id="guide34" inkscape:label="bottom" inkscape:locked="true" inkscape:color="rgb(0,0,255)" /><sodipodi:guide position="225.05109,1693.3186" orientation="0,1" id="guide44" inkscape:label="" inkscape:locked="false" inkscape:color="rgb(0,0,255)" /><sodipodi:guide position="0,900" orientation="0,1" id="guide46" inkscape:label="" inkscape:locked="true" inkscape:color="rgb(0,0,255)" /><sodipodi:guide position="605.7834,1023.7511" orientation="1,0" id="guide841" inkscape:label="width" />    <sodipodi:guide position="282.29541,343.08177" orientation="0,-1" id="guide853" /><sodipodi:guide position="319.23333,598.30787" orientation="0,-1" id="guide855" /></sodipodi:namedview>
 <svg:defs id="defs4"><inkscape:path-effect effect="fillet_chamfer" id="path-effect857" is_visible="true" lpeversion="1" satellites_param="F,0,1,1,0,16.249412,0,1 @ F,0,1,1,0,16.249412,0,1 @ F,0,0,1,0,0,0,1 @ F,0,0,1,0,0,0,1 @ F,0,1,1,0,16.249412,0,1 @ F,0,1,1,0,16.249412,0,1 @ F,0,0,1,0,0,0,1 @ F,0,0,1,0,0,0,1 @ F,0,0,1,0,0,0,1 @ F,0,0,1,0,0,0,1 @ F,0,1,1,0,16.249412,0,1 @ F,0,1,1,0,16.249412,0,1 @ F,0,0,1,0,0,0,1 @ F,0,0,1,0,0,0,1 @ F,0,0,1,0,0,0,1 @ F,0,1,1,0,16.249412,0,1 @ F,0,1,1,0,16.249412,0,1 @ F,0,0,1,0,0,0,1 @ F,0,0,1,0,0,0,1 @ F,0,0,1,0,0,0,1 @ F,0,0,1,0,0,0,1 @ F,0,0,1,0,0,0,1 @ F,0,1,1,0,16.249412,0,1 @ F,0,1,1,0,16.249412,0,1 @ F,0,0,1,0,0,0,1 @ F,0,0,1,0,0,0,1 @ F,0,0,1,0,0,0,1 @ F,0,0,1,0,0,0,1 @ F,0,0,1,0,0,0,1 @ F,0,0,1,0,0,0,1 @ F,0,0,1,0,0,0,1" unit="px" method="auto" mode="F" radius="0" chamfer_steps="1" flexible="false" use_knot_distance="true" apply_no_radius="true" apply_with_radius="true" only_selected="true" hide_knots="false" /><inkscape:path-effect effect="fillet_chamfer" id="path-effect856" is_visible="true" lpeversion="1" satellites_param="F,0,0,1,0,25.800265,0,1 @ F,0,0,1,0,21.384415,0,1 @ F,0,0,1,0,0,0,1 @ F,0,0,1,0,0,0,1 @ F,0,0,1,0,28.210351,0,1 @ F,0,0,1,0,32.932591,0,1 @ F,0,0,1,0,0,0,1 @ F,0,0,1,0,0,0,1 @ F,0,0,1,0,0,0,1 @ F,0,0,1,0,19.183634,0,1 @ F,0,0,1,0,25.139407,0,1 @ F,0,0,1,0,0,0,1 @ F,0,0,1,0,0,0,1 @ F,0,0,1,0,0,0,1 @ F,0,0,1,0,22.149635,0,1 @ F,0,0,1,0,25.08964,0,1 @ F,0,0,1,0,0,0,1 @ F,0,0,1,0,0,0,1 @ F,0,0,1,0,0,0,1 @ F,0,0,1,0,0,0,1 @ F,0,0,1,0,11.344992,0,1 @ F,0,0,1,0,0,0,1 @ F,0,0,1,0,0,0,1 @ F,0,0,1,0,0,0,1 @ F,0,0,1,0,0,0,1 @ F,0,0,1,0,0,0,1 @ F,0,0,1,0,0,0,1" unit="px" method="auto" mode="F" radius="0" chamfer_steps="1" flexible="false" use_knot_distance="true" apply_no_radius="true" apply_with_radius="true" only_selected="true" hide_knots="false" /><inkscape:path-effect effect="fillet_chamfer" id="path-effect855" is_visible="true" lpeversion="1" satellites_param="F,0,0,1,0,37.112437,0,1 @ F,0,0,1,0,34.894619,0,1 @ F,0,0,1,0,0,0,1 @ F,0,0,1,0,0,0,1 @ F,0,0,1,0,20.321346,0,1 @ F,0,0,1,0,0,0,1 @ F,0,0,1,0,0,0,1 @ F,0,0,1,0,0,0,1 @ F,0,1,1,0,0,0,1 @ F,0,0,1,0,0,0,1 @ F,0,0,1,0,0,0,1 @ F,0,0,1,0,0,0,1 @ F,0,0,1,0,28.944492,0,1 @ F,0,0,1,0,0,0,1 @ F,0,0,1,0,0,0,1 @ F,0,0,1,0,18.124427,0,1 @ F,0,0,1,0,25.011361,0,1 @ F,0,0,1,0,0,0,1 @ F,0,0,1,0,0,0,1 @ F,0,0,1,0,0,0,1 @ F,0,0,1,0,0,0,1 @ F,0,1,1,0,0,0,1 @ F,0,1,1,0,0,0,1 @ F,0,0,1,0,0,0,1 @ F,0,0,1,0,0,0,1 @ F,0,0,1,0,0,0,1 @ F,0,0,1,0,0,0,1" unit="px" method="auto" mode="F" radius="0" chamfer_steps="1" flexible="false" use_knot_distance="true" apply_no_radius="true" apply_with_radius="true" only_selected="true" hide_knots="false" /><inkscape:path-effect effect="spiro" id="path-effect853" is_visible="true" lpeversion="1" /><inkscape:path-effect effect="spiro" id="path-effect928" is_visible="true" lpeversion="1" /><inkscape:path-effect effect="spiro" id="path-effect921" is_visible="true" lpeversion="1" /><inkscape:path-effect effect="spiro" id="path-effect917" is_visible="true" lpeversion="1" /><inkscape:path-effect effect="spiro" id="path-effect849" is_visible="true" lpeversion="1" /><inkscape:path-effect effect="spiro" id="path-effect851" is_visible="true" lpeversion="1" />
  <svg:style type="text/css" id="style2">
   
    .fil0 {fill:#EF7F1A;fill-rule:nonzero}
   
  </svg:style>
 <inkscape:path-effect effect="spiro" id="path-effect1214" is_visible="true" lpeversion="1" /><inkscape:path-effect effect="spiro" id="path-effect1195" is_visible="true" lpeversion="1" /><inkscape:path-effect effect="spiro" id="path-effect992" is_visible="true" lpeversion="1" /><inkscape:path-effect effect="spiro" id="path-effect1060" is_visible="true" lpeversion="1" /><inkscape:path-effect effect="spiro" id="path-effect1047" is_visible="true" lpeversion="1" /><inkscape:path-effect effect="spiro" id="path-effect1085" is_visible="true" lpeversion="1" /><inkscape:path-effect effect="spiro" id="path-effect1286" is_visible="true" lpeversion="1" /><inkscape:path-effect effect="spiro" id="path-effect117" is_visible="true" lpeversion="1" /></svg:defs>
 
<svg:g id="path115"><svg:path style="color:#000000;fill:#1a5fb4;fill-rule:nonzero;stroke-linecap:round;stroke-linejoin:round;-inkscape-stroke:none;paint-order:fill stroke markers" d="M 541.33203,-27.410156 C 538.36595,-27.337576000000002 535.3447100000001,-27.014707 532.29102,-26.433594 L 446.01562,-10.015625 C 422.89978,-5.616718 408.70211,7.5228253999999986 402.42773,30.136719 C 376.30048999999997,124.30372 348.13174,217.90366 317.94727,310.84961 C 315.26879,319.09735 312.41723,327.28801 309.70703000000003,335.52538999999996 C 301.07184,308.6481 292.19419,281.84904 282.79102,255.23047 C 252.45328,169.3502 218.1374,84.878575 179.98828,2.171875 C 169.56382,-20.428198 147.98481,-31.116143 123.76172,-25.962891 L 38.072266,-7.7324219 C 13.683948,-2.5440194 -1.7719535,17.235374 -1.0820312,42.068359 C 2.1912112,159.88509 -0.07272107,277.85681 -7.8652344,395.46094 C -13.481598,480.22275 -22.185583,566.46571 -20.710937,654.41016 C -19.951312,699.71248 -16.461857000000002,744.963 -10.271484000000001,789.8457000000001 C -6.810281700000001,814.94082 13.424722,831.9478 38.453125,831.5976600000001 L 136.60352,830.2246100000001 C 148.93318,830.0521200000001 162.30189000000001,824.24021 170.37305,813.5351600000001 C 178.4442,802.8301000000001 180.34401,788.5336300000001 177.22852,776.6816400000001 C 166.4027,735.4979800000001 157.41602,693.8287400000002 150.30859,651.8437500000001 C 137.56134,576.5432000000001 130.89975,500.3524400000001 132.06836,424.4433600000001 C 132.61455,388.9645500000001 134.92412000000002,353.2808500000001 137.95312,317.3750000000001 C 151.51171000000002,362.4795100000001 165.02455,408.4557900000001 182.36523,454.0527300000001 C 199.80554999999998,499.9116500000001 220.90771999999998,544.3647200000001 245.40625,586.8710900000001 C 258.12524,608.93928 289.18009,615.7014000000001 309.96875,601.5214800000001 L 366.36328000000003,563.0546900000002 C 381.88369000000006,552.4682300000002 390.54351,541.0209300000001 396.48437,523.1738300000002 C 408.51587,487.02972000000017 420.45905,450.8571800000002 432.3125,414.65430000000015 C 442.26616,384.2537800000001 451.96895,353.77148000000017 461.79687,323.3300800000002 C 461.26898,348.7164500000002 459.91006,374.08425000000017 457.46484000000004,399.3515600000002 C 449.40903000000003,482.5952900000002 430.51571,566.9794400000002 421.74414,655.0839800000001 C 417.40797000000003,698.6379500000002 415.68826,742.4482800000001 416.5957,786.2070300000001 C 416.85692,798.8033700000002 422.84286000000003,811.6647000000002 432.95508,819.6543000000001 C 443.0673,827.6438900000002 456.76339,830.4600900000002 468.99414,827.9531200000001 L 576.65234,805.8867200000001 C 601.24342,800.8462300000001 617.48443,773.1944900000001 610.76172,749.48242 C 603.3361699999999,723.2913500000001 597.81096,696.55471 594.2480499999999,669.56836 C 583.0008799999999,584.37956 591.3117399999999,495.85672 602.3710899999999,406.58788999999996 C 613.9901899999999,312.80085999999994 629.0081799999998,214.74450999999996 615.3203099999998,114.97265999999996 C 610.16535,77.397732 600.94435,40.413245 587.87305,4.8183594 C 580.16236,-16.178876 562.09459,-27.918184 541.33203,-27.410156 M 459.95898,48.408203 C 460.06828,49.547899 460.64684,49.014147 459.49609,48.820312 C 459.52779,48.706317 459.56009,48.592513000000004 459.59179,48.478516 L 459.95898,48.408203 M 543.81445,64.558594 C 549.02881,83.818887 553.16621,103.37008 555.87695,123.12890999999999 C 568.01562,211.60858 554.5690599999999,304.42472999999995 542.8261699999999,399.21093999999994 C 531.63353,489.5556899999999 522.32139,583.18102 534.7636699999999,677.4218699999999 C 538.0064,701.9830799999999 542.7972199999999,726.3228699999999 548.9374999999999,750.3203099999998 L 476.47069999999985,765.1738299999998 C 476.41519999999986,730.4027299999998 478.00464999999986,695.6276699999999 481.44921999999985,661.0292999999998 C 489.74005999999986,577.7533699999998 508.6517299999999,493.3139999999998 517.1855499999998,405.1308599999998 C 524.9751599999998,324.63789999999983 523.3417899999998,243.3367899999998 512.8749999999998,163.1757799999998 C 523.2222499999998,130.3139399999998 533.6135799999997,97.4661649999998 543.8144499999997,64.5585939999998 L 543.81445,64.558594 M 157.95312,100.59766 C 182.55028000000001,158.06245 205.39667000000003,216.27710000000002 226.2168,275.21484 C 244.62979,327.33846 261.42619,380.02704 276.82031,433.12109 C 271.10711000000003,449.63424999999995 265.23363,466.09022999999996 259.39258,482.55859 C 251.94273,466.14619999999996 244.85341,449.56943 238.44727,432.72461 C 206.89661,349.76286999999996 187.57827,258.79028 151.85352,170.56835999999998 C 154.00823,147.25513999999998 156.04956,123.93271999999999 157.95312,100.59765999999999 L 157.95312,100.59766 M 443.08398,106.74609000000001 C 446.4159,123.69181 449.20899,140.73704 451.66796999999997,157.83398 C 426.58446,237.33745 401.23161999999996,316.75643 375.29102,395.98437 C 366.94451,421.47631 358.49948,446.93566 350.06445,472.39844 C 346.69209,459.84788 343.35236000000003,447.28805 339.81445,434.78319999999997 C 351.82796,399.74399999999997 363.57254,364.61308999999994 375.01367000000005,329.38280999999995 C 398.98452000000003,255.57022999999995 421.64590000000004,181.33359999999996 443.08398000000005,106.74608999999995 L 443.08398,106.74609000000001 M 60.210937,117.96484 C 69.46779000000001,134.441 78.080858,151.27974 85.826172,168.51562 C 87.556779,172.3668 89.060626,176.35716000000002 90.71875,180.25195000000002 C 90.197346,185.75154000000003 89.746443,191.25763000000003 89.210937,196.75586 C 81.973159,271.06877000000003 73.259317,346.53958 72.074219,423.51953000000003 C 70.8421,503.55381 77.86601,583.38396 91.150391,661.85742 C 97.328929,698.35527 104.95068,734.60148 113.83008,770.53711 L 47.916016,771.45898 C 42.8978,732.30076 39.943104,692.87575 39.28125,653.4043 C 37.884846,570.12599 46.29819,485.53805 52.003906,399.42773 C 58.211048,305.74993 60.913517999999996,211.84475 60.210937,117.96483999999998 L 60.210937,117.96484" id="path12694" /></svg:g></svg:svg>

<svg:svg xmlns:cc="http://creativecommons.org/ns#" xmlns:dc="http://purl.org/dc/elements/1.1/" xmlns:inkscape="http://www.inkscape.org/namespaces/inkscape" xmlns:rdf="http://www.w3.org/1999/02/22-rdf-syntax-ns#" xmlns:sodipodi="http://sodipodi.sourceforge.net/DTD/sodipodi-0.dtd" xmlns:svg="http://www.w3.org/2000/svg" xml:space="preserve" width="1000" height="1000" version="1.1" style="clip-rule:evenodd;fill-rule:evenodd;image-rendering:optimizeQuality;shape-rendering:geometricPrecision;text-rendering:geometricPrecision" viewBox="0 0 1000 1000" id="svg10" sodipodi:docname="M.svg" inkscape:version="1.0.2 (e86c870879, 2021-01-15)"><svg:metadata id="metadata14"><rdf:RDF><cc:Work rdf:about=""><dc:format>image/svg+xml</dc:format><dc:type rdf:resource="http://purl.org/dc/dcmitype/StillImage" /><dc:title /></cc:Work></rdf:RDF></svg:metadata><sodipodi:namedview pagecolor="#ffffff" bordercolor="#666666" borderopacity="1" objecttolerance="10" gridtolerance="10" guidetolerance="10" inkscape:pageopacity="0" inkscape:pageshadow="2" inkscape:window-width="1920" inkscape:window-height="1007" id="namedview12" showgrid="false" inkscape:zoom="0.84890884" inkscape:cx="508.28087" inkscape:cy="423.0944" inkscape:window-x="1920" inkscape:window-y="0" inkscape:window-maximized="1" inkscape:current-layer="svg10" showguides="true" inkscape:guide-bbox="true" inkscape:document-rotation="0" inkscape:pagecheckerboard="0"><sodipodi:guide position="0,1000" orientation="0,1" id="guide16" inkscape:label="" inkscape:locked="true" inkscape:color="rgb(0,0,255)" /><sodipodi:guide position="1763.3122,2036.1693" orientation="1000,0" id="guide18" /><sodipodi:guide position="0,200" orientation="0,1" id="guide20" inkscape:label="base" inkscape:locked="true" inkscape:color="rgb(0,0,255)" /><inkscape:grid type="xygrid" id="grid24" originx="-473.37552" originy="-489.69235" /><sodipodi:guide position="0,0" orientation="0,1" id="guide34" inkscape:label="bottom" inkscape:locked="true" inkscape:color="rgb(0,0,255)" /><sodipodi:guide position="225.05109,1693.3186" orientation="0,1" id="guide44" inkscape:label="" inkscape:locked="false" inkscape:color="rgb(0,0,255)" /><sodipodi:guide position="0,900" orientation="0,1" id="guide46" inkscape:label="" inkscape:locked="true" inkscape:color="rgb(0,0,255)" /><sodipodi:guide position="605.7834,1023.7511" orientation="1,0" id="guide841" inkscape:label="width" />    <sodipodi:guide position="282.29541,343.08177" orientation="0,-1" id="guide853" /><sodipodi:guide position="319.23333,598.30787" orientation="0,-1" id="guide855" /></sodipodi:namedview>
 <svg:defs id="defs4"><inkscape:path-effect effect="fillet_chamfer" id="path-effect857" is_visible="true" lpeversion="1" satellites_param="F,0,1,1,0,16.249412,0,1 @ F,0,1,1,0,16.249412,0,1 @ F,0,0,1,0,0,0,1 @ F,0,0,1,0,0,0,1 @ F,0,1,1,0,16.249412,0,1 @ F,0,1,1,0,16.249412,0,1 @ F,0,0,1,0,0,0,1 @ F,0,0,1,0,0,0,1 @ F,0,0,1,0,0,0,1 @ F,0,0,1,0,0,0,1 @ F,0,1,1,0,16.249412,0,1 @ F,0,1,1,0,16.249412,0,1 @ F,0,0,1,0,0,0,1 @ F,0,0,1,0,0,0,1 @ F,0,0,1,0,0,0,1 @ F,0,1,1,0,16.249412,0,1 @ F,0,1,1,0,16.249412,0,1 @ F,0,0,1,0,0,0,1 @ F,0,0,1,0,0,0,1 @ F,0,0,1,0,0,0,1 @ F,0,0,1,0,0,0,1 @ F,0,0,1,0,0,0,1 @ F,0,1,1,0,16.249412,0,1 @ F,0,1,1,0,16.249412,0,1 @ F,0,0,1,0,0,0,1 @ F,0,0,1,0,0,0,1 @ F,0,0,1,0,0,0,1 @ F,0,0,1,0,0,0,1 @ F,0,0,1,0,0,0,1 @ F,0,0,1,0,0,0,1 @ F,0,0,1,0,0,0,1" unit="px" method="auto" mode="F" radius="0" chamfer_steps="1" flexible="false" use_knot_distance="true" apply_no_radius="true" apply_with_radius="true" only_selected="true" hide_knots="false" /><inkscape:path-effect effect="fillet_chamfer" id="path-effect856" is_visible="true" lpeversion="1" satellites_param="F,0,0,1,0,25.800265,0,1 @ F,0,0,1,0,21.384415,0,1 @ F,0,0,1,0,0,0,1 @ F,0,0,1,0,0,0,1 @ F,0,0,1,0,28.210351,0,1 @ F,0,0,1,0,32.932591,0,1 @ F,0,0,1,0,0,0,1 @ F,0,0,1,0,0,0,1 @ F,0,0,1,0,0,0,1 @ F,0,0,1,0,19.183634,0,1 @ F,0,0,1,0,25.139407,0,1 @ F,0,0,1,0,0,0,1 @ F,0,0,1,0,0,0,1 @ F,0,0,1,0,0,0,1 @ F,0,0,1,0,22.149635,0,1 @ F,0,0,1,0,25.08964,0,1 @ F,0,0,1,0,0,0,1 @ F,0,0,1,0,0,0,1 @ F,0,0,1,0,0,0,1 @ F,0,0,1,0,0,0,1 @ F,0,0,1,0,11.344992,0,1 @ F,0,0,1,0,0,0,1 @ F,0,0,1,0,0,0,1 @ F,0,0,1,0,0,0,1 @ F,0,0,1,0,0,0,1 @ F,0,0,1,0,0,0,1 @ F,0,0,1,0,0,0,1" unit="px" method="auto" mode="F" radius="0" chamfer_steps="1" flexible="false" use_knot_distance="true" apply_no_radius="true" apply_with_radius="true" only_selected="true" hide_knots="false" /><inkscape:path-effect effect="fillet_chamfer" id="path-effect855" is_visible="true" lpeversion="1" satellites_param="F,0,0,1,0,37.112437,0,1 @ F,0,0,1,0,34.894619,0,1 @ F,0,0,1,0,0,0,1 @ F,0,0,1,0,0,0,1 @ F,0,0,1,0,20.321346,0,1 @ F,0,0,1,0,0,0,1 @ F,0,0,1,0,0,0,1 @ F,0,0,1,0,0,0,1 @ F,0,1,1,0,0,0,1 @ F,0,0,1,0,0,0,1 @ F,0,0,1,0,0,0,1 @ F,0,0,1,0,0,0,1 @ F,0,0,1,0,28.944492,0,1 @ F,0,0,1,0,0,0,1 @ F,0,0,1,0,0,0,1 @ F,0,0,1,0,18.124427,0,1 @ F,0,0,1,0,25.011361,0,1 @ F,0,0,1,0,0,0,1 @ F,0,0,1,0,0,0,1 @ F,0,0,1,0,0,0,1 @ F,0,0,1,0,0,0,1 @ F,0,1,1,0,0,0,1 @ F,0,1,1,0,0,0,1 @ F,0,0,1,0,0,0,1 @ F,0,0,1,0,0,0,1 @ F,0,0,1,0,0,0,1 @ F,0,0,1,0,0,0,1" unit="px" method="auto" mode="F" radius="0" chamfer_steps="1" flexible="false" use_knot_distance="true" apply_no_radius="true" apply_with_radius="true" only_selected="true" hide_knots="false" /><inkscape:path-effect effect="spiro" id="path-effect853" is_visible="true" lpeversion="1" /><inkscape:path-effect effect="spiro" id="path-effect928" is_visible="true" lpeversion="1" /><inkscape:path-effect effect="spiro" id="path-effect921" is_visible="true" lpeversion="1" /><inkscape:path-effect effect="spiro" id="path-effect917" is_visible="true" lpeversion="1" /><inkscape:path-effect effect="spiro" id="path-effect849" is_visible="true" lpeversion="1" /><inkscape:path-effect effect="spiro" id="path-effect851" is_visible="true" lpeversion="1" />
  <svg:style type="text/css" id="style2">
   
    .fil0 {fill:#EF7F1A;fill-rule:nonzero}
   
  </svg:style>
 <inkscape:path-effect effect="spiro" id="path-effect1214" is_visible="true" lpeversion="1" /><inkscape:path-effect effect="spiro" id="path-effect1195" is_visible="true" lpeversion="1" /><inkscape:path-effect effect="spiro" id="path-effect992" is_visible="true" lpeversion="1" /><inkscape:path-effect effect="spiro" id="path-effect1060" is_visible="true" lpeversion="1" /><inkscape:path-effect effect="spiro" id="path-effect1047" is_visible="true" lpeversion="1" /><inkscape:path-effect effect="spiro" id="path-effect1085" is_visible="true" lpeversion="1" /><inkscape:path-effect effect="spiro" id="path-effect1286" is_visible="true" lpeversion="1" /><inkscape:path-effect effect="spiro" id="path-effect117" is_visible="true" lpeversion="1" /></svg:defs>
 
<svg:g id="path115"><svg:path style="color:#000000;fill:#1a5fb4;fill-rule:nonzero;stroke-linecap:round;stroke-linejoin:round;-inkscape-stroke:none" d="m 541.33203,-27.410156 c -2.96608,0.07258 -5.98732,0.395449 -9.04101,0.976562 l -86.2754,16.417969 c -23.11584,4.398907 -37.31351,17.5384504 -43.58789,40.152344 -26.12724,94.167001 -54.29599,187.766941 -84.48046,280.712891 -2.67848,8.24774 -5.53004,16.4384 -8.24024,24.67578 C 301.07184,308.6481 292.19419,281.84904 282.79102,255.23047 252.45328,169.3502 218.1374,84.878575 179.98828,2.171875 169.56382,-20.428198 147.98481,-31.116143 123.76172,-25.962891 L 38.072266,-7.7324219 C 13.683948,-2.5440194 -1.7719535,17.235374 -1.0820312,42.068359 2.1912112,159.88509 -0.07272107,277.85681 -7.8652344,395.46094 -13.481598,480.22275 -22.185583,566.46571 -20.710937,654.41016 c 0.759625,45.30232 4.24908,90.55284 10.439453,135.43554 3.4612023,25.09512 23.696206,42.1021 48.724609,41.75196 l 98.150395,-1.37305 c 12.32966,-0.17249 25.69837,-5.9844 33.76953,-16.68945 8.07115,-10.70506 9.97096,-25.00153 6.85547,-36.85352 -10.82582,-41.18366 -19.8125,-82.8529 -26.91993,-124.83789 -12.74725,-75.30055 -19.40884,-151.49131 -18.24023,-227.40039 0.54619,-35.47881 2.85576,-71.16251 5.88476,-107.06836 13.55859,45.10451 27.07143,91.08079 44.41211,136.67773 17.44032,45.85892 38.54249,90.31199 63.04102,132.81836 12.71899,22.06819 43.77384,28.83031 64.5625,14.65039 l 56.39453,-38.46679 c 15.52041,-10.58646 24.18023,-22.03376 30.12109,-39.88086 12.0315,-36.14411 23.97468,-72.31665 35.82813,-108.51953 9.95366,-30.40052 19.65645,-60.88282 29.48437,-91.32422 -0.52789,25.38637 -1.88681,50.75417 -4.33203,76.02148 -8.05581,83.24373 -26.94913,167.62788 -35.7207,255.73242 -4.33617,43.55397 -6.05588,87.3643 -5.14844,131.12305 0.26122,12.59634 6.24716,25.45767 16.35938,33.44727 10.11222,7.98959 23.80831,10.80579 36.03906,8.29882 l 107.6582,-22.0664 c 24.59108,-5.04049 40.83209,-32.69223 34.10938,-56.4043 -7.42555,-26.19107 -12.95076,-52.92771 -16.51367,-79.91406 -11.24717,-85.1888 -2.93631,-173.71164 8.12304,-262.98047 11.6191,-93.78703 26.63709,-191.84338 12.94922,-291.61523 C 610.16535,77.397732 600.94435,40.413245 587.87305,4.8183594 580.16236,-16.178876 562.09459,-27.918184 541.33203,-27.410156 Z m -81.37305,75.818359 c 0.1093,1.139696 0.68786,0.605944 -0.46289,0.412109 0.0317,-0.113995 0.064,-0.227799 0.0957,-0.341796 z m 83.85547,16.150391 c 5.21436,19.260293 9.35176,38.811486 12.0625,58.570316 12.13867,88.47967 -1.30789,181.29582 -13.05078,276.08203 -11.19264,90.34475 -20.50478,183.97008 -8.0625,278.21093 3.24273,24.56121 8.03355,48.901 14.17383,72.89844 l -72.4668,14.85352 c -0.0555,-34.7711 1.53395,-69.54616 4.97852,-104.14453 8.29084,-83.27593 27.20251,-167.7153 35.73633,-255.89844 7.78961,-80.49296 6.15624,-161.79407 -4.31055,-241.95508 10.34725,-32.86184 20.73858,-65.709615 30.93945,-98.617186 z M 157.95312,100.59766 c 24.59716,57.46479 47.44355,115.67944 68.26368,174.61718 18.41299,52.12362 35.20939,104.8122 50.60351,157.90625 -5.7132,16.51316 -11.58668,32.96914 -17.42773,49.4375 -7.44985,-16.41239 -14.53917,-32.98916 -20.94531,-49.83398 -31.55066,-82.96174 -50.869,-173.93433 -86.59375,-262.15625 2.15471,-23.31322 4.19604,-46.63564 6.0996,-69.9707 z m 285.13086,6.14843 c 3.33192,16.94572 6.12501,33.99095 8.58399,51.08789 -25.08351,79.50347 -50.43635,158.92245 -76.37695,238.15039 -8.34651,25.49194 -16.79154,50.95129 -25.22657,76.41407 -3.37236,-12.55056 -6.71209,-25.11039 -10.25,-37.61524 12.01351,-35.0392 23.75809,-70.17011 35.19922,-105.40039 23.97085,-73.81258 46.63223,-148.04921 68.07031,-222.63672 z M 60.210937,117.96484 c 9.256853,16.47616 17.869921,33.3149 25.615235,50.55078 1.730607,3.85118 3.234454,7.84154 4.892578,11.73633 -0.521404,5.49959 -0.972307,11.00568 -1.507813,16.50391 -7.237778,74.31291 -15.95162,149.78372 -17.136718,226.76367 -1.232119,80.03428 5.791791,159.86443 19.076172,238.33789 6.178538,36.49785 13.800289,72.74406 22.679689,108.67969 l -65.914064,0.92187 C 42.8978,732.30076 39.943104,692.87575 39.28125,653.4043 37.884846,570.12599 46.29819,485.53805 52.003906,399.42773 c 6.207142,-93.6778 8.909612,-187.58298 8.207031,-281.46289 z" id="path12676" /></svg:g></svg:svg>
